packages/astro-components-stencil/src/icons/picture-in-picture-alt.svg

<svg xmlns="http://www.w3.org/2000/svg" viewBox="0 0 24 24"><g xmlns="http://www.w3.org/2000/svg" id="picture-in-picture-alt" fill-rule="nonzero">
            <path d="M18 11h-6c-.55 0-1 .45-1 1v4c0 .55.45 1 1 1h6c.55 0 1-.45 1-1v-4c0-.55-.45-1-1-1zm5 8V4.98C23 3.88 22.1 3 21 3H3c-1.1 0-2 .88-2 1.98V19c0 1.1.9 2 2 2h18c1.1 0 2-.9 2-2zm-3 .02H4c-.55 0-1-.45-1-1V5.97c0-.55.45-1 1-1h16c.55 0 1 .45 1 1v12.05c0 .55-.45 1-1 1z"/>
        </g></svg>

<svg width="24" height="24" viewBox="0 0 24 24" fill="none" xmlns="http://www.w3.org/2000/svg">
<path fill-rule="evenodd" clip-rule="evenodd" d="M23 19V4.98C23 3.88 22.1 3 21 3H3C1.9 3 1 3.88 1 4.98V19C1 20.1 1.9 21 3 21H21C22.1 21 23 20.1 23 19ZM18 11H12C11.45 11 11 11.45 11 12V16C11 16.55 11.45 17 12 17H18C18.55 17 19 16.55 19 16V12C19 11.45 18.55 11 18 11ZM4 19.02H20C20.55 19.02 21 18.57 21 18.02V5.97C21 5.42 20.55 4.97 20 4.97H4C3.45 4.97 3 5.42 3 5.97V18.02C3 18.57 3.45 19.02 4 19.02Z" fill="black"/>
</svg>
